X: 85
T: The maid of Feakle
C: anon.
B: Francis O'Neill: "The Dance Music of Ireland" (1907) no. 775
N: page 29
N: hexatonic
R: Reel
M: C
L: 1/8
K: G
Bc |"G"d2BG "C"AGEG|"G"DGBG "C"c2Bc|"G"d2BG "C"AGEG|"G"DGBG "C"A2Bc|"G"dGBG "C"AGEG|
"G"DGBG "C"c2BA|"G"GABG "C"egge|"G"dBAB G2||GA| "G"BddB "C"c2ed|"G"BddB "C"AGED|
"G"BddB "C"cBce|"G"dBGB "C"A>BG>A|"G"BddB "C"cecd|"G"BddB "C"AGED|"G"Bd~d2 ed (3B^cd|"C"egfa "G"g2|]
